svgs/insular.svg

<svg xmlns="http://www.w3.org/2000/svg" viewBox="0 0 192 192"><path d="M159.047 16.374H32.907l-16.43 131.64h159ZM32.907 16.374l142.57 131.64M57.695 16.374 172.256 122.13M82.523 16.374l86.513 79.873m-61.725-79.873 58.463 53.99m-33.635-53.99 30.414 28.106M30.339 36.923l120.35 111.091M27.77 57.471l98.091 90.543M25.202 77.971l75.871 70.043M22.674 98.519l53.571 49.495m-56.139-28.946 31.351 28.946M167.405 175.626H24.549l-8.072-27.612h159Z" fill="none" stroke="#000" stroke-width="12" stroke-linecap="round" stroke-linejoin="round"/></svg>

<svg
    xmlns="http://www.w3.org/2000/svg"
    viewBox="0 0 192 192"
    id="vector">
    <path
        id="path"
        d="M 159.047 16.374 L 32.907 16.374 L 16.477 148.014 L 175.477 148.014 Z"
        fill="none"
        stroke="#000000"
        stroke-width="12"
        stroke-linecap="round"
        stroke-linejoin="round"/>
    <path
        id="path_1"
        d="M 32.907 16.374 L 175.477 148.014 M 57.695 16.374 L 172.256 122.13 M 82.523 16.374 L 169.036 96.247 M 107.311 16.374 L 165.774 70.364 M 132.139 16.374 L 162.553 44.48 M 30.339 36.923 L 150.689 148.014 M 27.77 57.471 L 125.861 148.014 M 25.202 77.971 L 101.073 148.014 M 22.674 98.519 L 76.245 148.014 M 20.106 119.068 L 51.457 148.014"
        fill="none"
        stroke="#000000"
        stroke-width="12"
        stroke-linecap="round"
        stroke-linejoin="round"/>
    <path
        id="path_2"
        d="M 167.405 175.626 L 24.549 175.626 L 16.477 148.014 L 175.477 148.014 Z"
        fill="none"
        stroke="#000000"
        stroke-width="12"
        stroke-linecap="round"
        stroke-linejoin="round"/>
</svg>
